logo/brave.svg

<?xml version="1.0" encoding="UTF-8"?>
<svg width="256px" height="301px" viewBox="0 0 256 301" version="1.1" xmlns="http://www.w3.org/2000/svg" xmlns:xlink="http://www.w3.org/1999/xlink" preserveAspectRatio="xMidYMid">
    <defs>
        <linearGradient x1="0%" y1="50.017894%" x2="100.096998%" y2="50.017894%" id="linearGradient-1">
            <stop stop-color="#FFFFFF" offset="0%"></stop>
            <stop stop-color="#FFFFFF" stop-opacity="0.9576" offset="14.13%"></stop>
            <stop stop-color="#FFFFFF" stop-opacity="0.7" offset="100%"></stop>
        </linearGradient>
        <linearGradient x1="-0.0390588235%" y1="49.9824538%" x2="100%" y2="49.9824538%" id="linearGradient-2">
            <stop stop-color="#F1F1F2" offset="0%"></stop>
            <stop stop-color="#E4E5E6" offset="9.191442%"></stop>
            <stop stop-color="#D9DADB" offset="23.57%"></stop>
            <stop stop-color="#D2D4D5" offset="43.8%"></stop>
            <stop stop-color="#D0D2D3" offset="100%"></stop>
        </linearGradient>
    </defs>
	<g>
		<path d="M256,97.1 L246.7,72 L253.1,57.6 C253.9,55.7 253.5,53.6 252.1,52.1 L234.6,34.4 C226.9,26.7 215.5,24 205.2,27.6 L200.3,29.3 L173.5,0.3 L128.2,0 L127.9,0 L82.3,0.4 L55.6,29.6 L50.8,27.9 C40.4,24.2 28.9,26.9 21.2,34.8 L3.4,52.8 C2.2,54 1.9,55.7 2.5,57.2 L9.2,72.2 L0,97.3 L6,120 L33.2,223.3 C36.3,235.2 43.5,245.6 53.6,252.8 C53.6,252.8 86.6,276.1 119.1,297.2 C122,299.1 125,300.4 128.2,300.4 C131.4,300.4 134.4,299.1 137.3,297.2 C173.9,273.2 202.8,252.7 202.8,252.7 C212.8,245.5 220,235.1 223.1,223.2 L250.1,119.9 L256,97.1 Z" fill="#F15A22"></path>
		<path d="M34.5,227.7 L0,99.5 L10.1,74.4 L3.1,55.8 L19.8,38.8 C25.3,33.9 36.1,32.2 41.1,35.1 L67.2,50.1 L101.2,58 L127.7,47 L129.9,274.7 C129.5,307.5 131.6,304 107.5,288.5 L48,248.6 C41.6,242.5 36.7,235.6 34.5,227.7 Z" fill="url(#linearGradient-1)" opacity="0.15" style="mix-blend-mode: lighten;"></path>
		<path d="M202.2,252.245742 L151.6,286.845742 C137.5,294.545742 130.7,302.145742 129.6,298.445742 C128.7,295.545742 129.4,287.045742 129.1,273.845742 L128.5,51.1457423 C128.6,48.9457423 130.1,45.2457423 132.7,45.6457423 L158.5,53.4457423 L195.7,47.6457423 L220.3,29.5457423 C222.9,27.5457423 226.7,27.7457423 229.1,30.0457423 L251.1,51.0457423 C253.1,53.1457423 253.2,57.2457423 252,59.8457423 L245.9,71.1457423 L256,97.2457423 L221.2,226.645742 C215.8,242.745742 208.2,246.945742 202.2,252.245742 Z" fill="url(#linearGradient-2)" opacity="0.4" style="mix-blend-mode: darken;"></path>
		<path d="M134,184.801367 C132.8,184.301367 131.5,183.901367 131.1,183.901367 L129.5,183.901367 L127.9,183.901367 C127.5,183.901367 126.2,184.301367 125,184.801367 L112,190.201367 C110.8,190.701367 108.8,191.601367 107.6,192.201367 L88,202.401367 C86.8,203.001367 86.7,204.101367 87.8,204.901367 L105.1,217.101367 C106.2,217.901367 107.9,219.201367 108.9,220.101367 L116.6,226.701367 C117.6,227.601367 119.2,229.001367 120.2,229.901367 L127.6,236.501367 C128.6,237.401367 130.2,237.401367 131.2,236.501367 L138.8,229.901367 C139.8,229.001367 141.4,227.601367 142.4,226.701367 L150.1,220.001367 C151.1,219.101367 152.8,217.801367 153.9,217.001367 L171.2,204.701367 C172.3,203.901367 172.2,202.801367 171,202.201367 L151.4,192.201367 C150.2,191.601367 148.2,190.701367 147,190.201367 L134,184.801367 Z" fill="#FFFFFF"></path>
		<path d="M227.813299,101.557129 C228.213299,100.257129 228.213299,99.7571289 228.213299,99.7571289 C228.213299,98.4571289 228.113299,96.2571289 227.913299,94.9571289 L226.913299,92.0571289 C226.313299,90.8571289 225.313299,88.9571289 224.513299,87.8571289 L213.213299,71.1571289 C212.513299,70.0571289 211.213299,68.3571289 210.313299,67.2571289 L195.713299,48.9571289 C194.913299,47.9571289 194.113299,47.0571289 194.013299,47.1571289 L193.813299,47.1571289 C193.813299,47.1571289 192.713299,47.3571289 191.413299,47.5571289 L169.113299,51.9571289 C167.813299,52.2571289 165.713299,52.6571289 164.413299,52.8571289 L164.013299,52.9571289 C162.713299,53.1571289 160.613299,53.0571289 159.313299,52.6571289 L140.613299,46.6571289 C139.313299,46.2571289 137.213299,45.6571289 136.013299,45.3571289 C136.013299,45.3571289 132.213299,44.4571289 129.113299,44.5571289 C126.013299,44.5571289 122.213299,45.3571289 122.213299,45.3571289 C120.913299,45.6571289 118.813299,46.2571289 117.613299,46.6571289 L98.9132993,52.6571289 C97.6132993,53.0571289 95.5132993,53.1571289 94.2132993,52.9571289 L93.8132993,52.8571289 C92.5132993,52.6571289 90.4132993,52.1571289 89.1132993,51.9571289 L66.6132993,47.7571289 C65.3132993,47.4571289 64.2132993,47.3571289 64.2132993,47.3571289 L64.0132993,47.3571289 C63.9132993,47.3571289 63.1132993,48.1571289 62.3132993,49.1571289 L47.7132993,67.4571289 C46.9132993,68.4571289 45.6132993,70.2571289 44.8132993,71.3571289 L33.5132993,88.0571289 C32.8132993,89.1571289 31.7132993,91.0571289 31.1132993,92.2571289 L30.1132993,95.1571289 C29.9132993,96.4571289 29.7132993,98.6571289 29.8132993,99.9571289 C29.8132993,99.9571289 29.8132993,100.357129 30.2132993,101.757129 C30.9132993,104.157129 32.6132993,106.357129 32.6132993,106.357129 C33.4132993,107.357129 34.9132993,109.057129 35.8132993,109.957129 L68.9132993,145.157129 C69.8132993,146.157129 70.1132993,147.957129 69.6132993,149.157129 L62.7132993,165.457129 C62.2132993,166.657129 62.1132993,168.657129 62.6132993,169.957129 L64.5132993,175.057129 C66.1132993,179.357129 68.8132993,183.157129 72.4132993,186.057129 L79.1132993,191.457129 C80.1132993,192.257129 81.9132993,192.557129 83.1132993,191.957129 L104.313299,181.857129 C105.513299,181.257129 107.313299,180.057129 108.313299,179.157129 L123.513299,165.457129 C125.713299,163.457129 125.813299,160.057129 123.813299,157.857129 L91.9132993,136.357129 C90.8132993,135.657129 90.4132993,134.057129 91.0132993,132.857129 L105.013299,106.457129 C105.613299,105.257129 105.713299,103.357129 105.213299,102.157129 L103.513299,98.2571289 C103.013299,97.0571289 101.513299,95.6571289 100.313299,95.1571289 L59.2132993,79.7571289 C58.0132993,79.2571289 58.0132993,78.7571289 59.3132993,78.6571289 L85.8132993,76.1571289 C87.1132993,76.0571289 89.2132993,76.2571289 90.5132993,76.5571289 L114.113299,83.1571289 C115.413299,83.5571289 116.213299,84.8571289 116.013299,86.1571289 L107.813299,131.057129 C107.613299,132.357129 107.613299,134.157129 107.913299,135.157129 C108.213299,136.157129 109.513299,137.057129 110.813299,137.357129 L127.213299,140.857129 C128.513299,141.157129 130.613299,141.157129 131.913299,140.857129 L147.213299,137.357129 C148.513299,137.057129 149.813299,136.057129 150.113299,135.157129 C150.413299,134.257129 150.513299,132.357129 150.213299,131.057129 L142.113299,86.1571289 C141.913299,84.8571289 142.713299,83.4571289 144.013299,83.1571289 L167.613299,76.5571289 C168.913299,76.1571289 171.013299,76.0571289 172.313299,76.1571289 L198.813299,78.6571289 C200.113299,78.7571289 200.213299,79.2571289 198.913299,79.7571289 L157.813299,95.3571289 C156.613299,95.8571289 155.113299,97.1571289 154.613299,98.4571289 L152.913299,102.357129 C152.413299,103.557129 152.413299,105.557129 153.113299,106.657129 L167.213299,133.057129 C167.813299,134.257129 167.413299,135.757129 166.313299,136.557129 L134.413299,158.157129 C132.313299,160.257129 132.513299,163.757129 134.713299,165.757129 L149.913299,179.457129 C150.913299,180.357129 152.713299,181.557129 153.913299,182.057129 L175.213299,192.157129 C176.413299,192.757129 178.213299,192.457129 179.213299,191.657129 L185.913299,186.157129 C189.513299,183.257129 192.213299,179.457129 193.713299,175.157129 L195.613299,170.057129 C196.113299,168.857129 196.013299,166.757129 195.513299,165.557129 L188.613299,149.257129 C188.113299,148.057129 188.413299,146.257129 189.313299,145.257129 L222.413299,110.057129 C223.313299,109.057129 224.713299,107.457129 225.613299,106.457129 C225.413299,106.157129 227.213299,103.957129 227.813299,101.557129 Z" fill="#FFFFFF"></path>
	</g>
</svg>

<svg viewBox="0 0 256 301" xmlns="http://www.w3.org/2000/svg"><defs><linearGradient id="a" x1="0%" x2="100.097%" y1="50.017%" y2="50.017%"><stop offset="0%" stop-color="#FFF"/><stop offset="14.13%" stop-color="#FFF" stop-opacity=".957"/><stop offset="100%" stop-color="#FFF" stop-opacity=".7"/></linearGradient><linearGradient id="b" x1="-.04%" x2="100%" y1="49.982%" y2="49.982%"><stop offset="0%" stop-color="#F1F1F2"/><stop offset="9.19144%" stop-color="#E4E5E6"/><stop offset="23.57%" stop-color="#D9DADB"/><stop offset="43.8%" stop-color="#D2D4D5"/><stop offset="100%" stop-color="#D0D2D3"/></linearGradient></defs><path fill="#F15A22" d="M256 97.1L246.7 72l6.4-14.4c.8-1.9.4-4-1-5.5l-17.5-17.7c-7.7-7.7-19.1-10.4-29.4-6.8l-4.9 1.7 -26.8-29L128.2 0h-.3L82.3.4 55.6 29.6l-4.8-1.7c-10.4-3.7-21.9-1-29.6 6.9l-17.8 18c-1.2 1.2-1.5 2.9-.9 4.4l6.7 15 -9.2 25.1L6 120l27.2 103.3c3.1 11.9 10.3 22.3 20.4 29.5 0 0 33 23.3 65.5 44.4 2.9 1.9 5.9 3.2 9.1 3.2 3.2 0 6.2-1.3 9.1-3.2 36.6-24 65.5-44.5 65.5-44.5 10-7.2 17.2-17.6 20.3-29.5l27-103.3 5.9-22.8Z"/><path opacity=".15" style="mix-blend-mode:lighten;" fill="url(#a)" d="M34.5 227.7L0 99.5l10.1-25.1 -7-18.6 16.7-17c5.5-4.9 16.3-6.6 21.3-3.7l26.1 15 34 7.9 26.5-11 2.2 227.7c-.4 32.8 1.7 29.3-22.4 13.8L48 248.6c-6.4-6.1-11.3-13-13.5-20.9Z"/><path opacity=".4" style="mix-blend-mode:darken;" fill="url(#b)" d="M202.2 252.24l-50.6 34.6c-14.1 7.7-20.9 15.3-22 11.6 -.9-2.9-.2-11.4-.5-24.6l-.6-222.7c.1-2.2 1.6-5.9 4.2-5.5l25.8 7.8 37.2-5.8 24.6-18.1c2.6-2 6.4-1.8 8.8.5l22 21c2 2.1 2.1 6.2.9 8.8l-6.1 11.3 10.1 26.1 -34.8 129.4c-5.4 16.1-13 20.3-19 25.6Z"/><g fill="#FFF"><path d="M134 184.8c-1.2-.5-2.5-.9-2.9-.9h-1.6 -1.6c-.4 0-1.7.4-2.9.9l-13 5.4c-1.2.5-3.2 1.4-4.4 2L88 202.4c-1.2.6-1.3 1.7-.2 2.5l17.3 12.2c1.1.8 2.8 2.1 3.8 3l7.7 6.6c1 .9 2.6 2.3 3.6 3.2l7.4 6.6c1 .9 2.6.9 3.6 0l7.6-6.6c1-.9 2.6-2.3 3.6-3.2l7.7-6.7c1-.9 2.7-2.2 3.8-3l17.3-12.3c1.1-.8 1-1.9-.2-2.5l-19.6-10c-1.2-.6-3.2-1.5-4.4-2l-13-5.4Z"/><path d="M227.81 101.55c.4-1.3.4-1.81.4-1.81 0-1.3-.1-3.5-.3-4.8l-1-2.9c-.6-1.2-1.6-3.1-2.4-4.2l-11.3-16.7c-.7-1.1-2-2.8-2.9-3.9l-14.6-18.3c-.8-1-1.6-1.9-1.7-1.8h-.2s-1.1.2-2.4.4l-22.3 4.4c-1.3.3-3.4.7-4.7.9l-.4.1c-1.3.2-3.4.1-4.7-.3l-18.7-6c-1.3-.4-3.4-1-4.6-1.3 0 0-3.8-.9-6.9-.8 -3.1 0-6.9.8-6.9.8 -1.3.3-3.4.9-4.6 1.3l-18.7 6c-1.3.4-3.4.5-4.7.3l-.4-.1c-1.3-.2-3.4-.7-4.7-.9l-22.5-4.2c-1.3-.3-2.4-.4-2.4-.4h-.2c-.1 0-.9.8-1.7 1.8l-14.6 18.3c-.8 1-2.1 2.8-2.9 3.9l-11.3 16.7c-.7 1.1-1.8 3-2.4 4.2l-1 2.9c-.2 1.3-.4 3.5-.3 4.8 0 0 0 .4.4 1.8 .7 2.4 2.4 4.6 2.4 4.6 .8 1 2.3 2.7 3.2 3.6l33.1 35.2c.9 1 1.2 2.8.7 4l-6.9 16.3c-.5 1.2-.6 3.2-.1 4.5l1.9 5.1c1.6 4.3 4.3 8.1 7.9 11l6.7 5.4c1 .8 2.8 1.1 4 .5l21.2-10.1c1.2-.6 3-1.8 4-2.7l15.2-13.7c2.2-2 2.3-5.4.3-7.6l-31.9-21.5c-1.1-.7-1.5-2.3-.9-3.5l14-26.4c.6-1.2.7-3.1.2-4.3l-1.7-3.9c-.5-1.2-2-2.6-3.2-3.1l-41.1-15.4c-1.2-.5-1.2-1 .1-1.1l26.5-2.5c1.3-.1 3.4.1 4.7.4l23.6 6.6c1.3.4 2.1 1.7 1.9 3l-8.2 44.9c-.2 1.3-.2 3.1.1 4.1 .3 1 1.6 1.9 2.9 2.2l16.4 3.5c1.3.3 3.4.3 4.7 0l15.3-3.5c1.3-.3 2.6-1.3 2.9-2.2 .3-.9.4-2.8.1-4.1l-8.1-44.9c-.2-1.3.6-2.7 1.9-3l23.6-6.6c1.3-.4 3.4-.5 4.7-.4l26.5 2.5c1.3.1 1.4.6.1 1.1l-41.1 15.6c-1.2.5-2.7 1.8-3.2 3.1l-1.7 3.9c-.5 1.2-.5 3.2.2 4.3l14.1 26.4c.6 1.2.2 2.7-.9 3.5l-31.9 21.6c-2.1 2.1-1.9 5.6.3 7.6l15.2 13.7c1 .9 2.8 2.1 4 2.6l21.3 10.1c1.2.6 3 .3 4-.5l6.7-5.5c3.6-2.9 6.3-6.7 7.8-11l1.9-5.1c.5-1.2.4-3.3-.1-4.5l-6.9-16.3c-.5-1.2-.2-3 .7-4l33.1-35.2c.9-1 2.3-2.6 3.2-3.6 -.2-.3 1.6-2.5 2.2-4.9Z"/></g></svg>
